src/assets/imgs/icons/github.svg

<svg width="24" height="24" viewBox="0 0 24 24" fill="none" xmlns="http://www.w3.org/2000/svg">
<path d="M8.02742 19.3248C8.02742 19.424 7.91613 19.5034 7.77581 19.5034C7.61613 19.5183 7.50484 19.4389 7.50484 19.3248C7.50484 19.2255 7.61613 19.1461 7.75645 19.1461C7.90161 19.1312 8.02742 19.2106 8.02742 19.3248ZM6.52258 19.1014C6.48871 19.2007 6.58548 19.3148 6.73065 19.3446C6.85645 19.3942 7.00161 19.3446 7.03064 19.2454C7.05968 19.1461 6.96774 19.032 6.82258 18.9873C6.69677 18.9526 6.55645 19.0022 6.52258 19.1014ZM8.66129 19.0171C8.52097 19.0518 8.42419 19.1461 8.43871 19.2603C8.45323 19.3595 8.57903 19.424 8.72419 19.3893C8.86452 19.3545 8.96129 19.2603 8.94677 19.161C8.93226 19.0667 8.80161 19.0022 8.66129 19.0171ZM11.8452 0C5.13387 0 0 5.22573 0 12.109C0 17.6126 3.37742 22.3222 8.20161 23.9798C8.82097 24.0939 9.03871 23.7019 9.03871 23.3793C9.03871 23.0716 9.02419 21.3744 9.02419 20.3322C9.02419 20.3322 5.6371 21.0766 4.92581 18.8533C4.92581 18.8533 4.37419 17.4092 3.58065 17.037C3.58065 17.037 2.47258 16.2578 3.65806 16.2727C3.65806 16.2727 4.8629 16.372 5.52581 17.5531C6.58548 19.4687 8.36129 18.9178 9.05323 18.5903C9.16452 17.7963 9.47903 17.2454 9.82742 16.9179C7.12258 16.6102 4.39355 16.2082 4.39355 11.4341C4.39355 10.0693 4.76129 9.38447 5.53548 8.51103C5.40968 8.18846 4.99839 6.85846 5.66129 5.14136C6.67258 4.81878 9 6.48129 9 6.48129C9.96774 6.20338 11.0081 6.05946 12.0387 6.05946C13.0694 6.05946 14.1097 6.20338 15.0774 6.48129C15.0774 6.48129 17.4048 4.81382 18.4161 5.14136C19.079 6.86342 18.6677 8.18846 18.5419 8.51103C19.3161 9.38943 19.7903 10.0743 19.7903 11.4341C19.7903 16.2231 16.9403 16.6052 14.2355 16.9179C14.6806 17.3099 15.0581 18.0543 15.0581 19.2205C15.0581 20.893 15.0435 22.9624 15.0435 23.3694C15.0435 23.6919 15.2661 24.084 15.8806 23.9699C20.7194 22.3222 24 17.6126 24 12.109C24 5.22573 18.5565 0 11.8452 0ZM4.70323 17.1164C4.64032 17.166 4.65484 17.2801 4.7371 17.3744C4.81452 17.4538 4.92581 17.4886 4.98871 17.424C5.05161 17.3744 5.0371 17.2603 4.95484 17.166C4.87742 17.0866 4.76613 17.0518 4.70323 17.1164ZM4.18064 16.7144C4.14677 16.7789 4.19516 16.8583 4.29194 16.9079C4.36935 16.9576 4.46613 16.9427 4.5 16.8732C4.53387 16.8087 4.48548 16.7293 4.38871 16.6796C4.29194 16.6499 4.21452 16.6648 4.18064 16.7144ZM5.74839 18.4811C5.67097 18.5456 5.7 18.6945 5.81129 18.7888C5.92258 18.9029 6.0629 18.9178 6.12581 18.8384C6.18871 18.7739 6.15968 18.625 6.0629 18.5307C5.95645 18.4166 5.81129 18.4017 5.74839 18.4811ZM5.19677 17.7516C5.11935 17.8012 5.11935 17.9302 5.19677 18.0444C5.27419 18.1585 5.40484 18.2082 5.46774 18.1585C5.54516 18.094 5.54516 17.965 5.46774 17.8508C5.4 17.7367 5.27419 17.6871 5.19677 17.7516Z" fill="currentColor"/>
</svg>

<svg xmlns="http://www.w3.org/2000/svg" fill="none" viewBox="0 0 24 24">
  <path fill="currentColor" d="M8.03 19.32c0 .1-.11.18-.25.18-.16.02-.28-.06-.28-.18 0-.1.12-.17.26-.17.14-.02.27.06.27.17Zm-1.5-.22c-.04.1.06.21.2.24.13.05.27 0 .3-.1.03-.1-.06-.2-.2-.25-.13-.04-.27.01-.3.11Zm2.13-.08c-.14.03-.24.13-.22.24.01.1.14.16.28.13.14-.04.24-.13.23-.23-.02-.1-.15-.16-.29-.14ZM11.85 0C5.13 0 0 5.23 0 12.1c0 5.51 3.38 10.22 8.2 11.88.62.11.84-.28.84-.6l-.02-3.05s-3.38.75-4.1-1.48c0 0-.55-1.44-1.34-1.81 0 0-1.1-.78.08-.77 0 0 1.2.1 1.87 1.28 1.06 1.92 2.83 1.37 3.52 1.04.11-.8.43-1.34.78-1.67-2.7-.31-5.44-.71-5.44-5.49 0-1.36.37-2.05 1.15-2.92a4.8 4.8 0 0 1 .12-3.37C6.67 4.82 9 6.48 9 6.48a11.1 11.1 0 0 1 6.08 0s2.32-1.67 3.34-1.34a4.8 4.8 0 0 1 .12 3.37c.78.88 1.25 1.56 1.25 2.92 0 4.8-2.85 5.18-5.55 5.49.44.39.82 1.13.82 2.3l-.02 4.15c0 .32.23.71.84.6C20.72 22.32 24 17.61 24 12.11 24 5.23 18.56 0 11.85 0ZM4.7 17.12c-.06.05-.05.16.04.25.07.08.19.12.25.05.06-.05.05-.16-.04-.25-.07-.08-.18-.12-.25-.05Zm-.52-.4c-.03.06.02.14.11.19.08.05.18.03.21-.04.03-.06-.01-.14-.11-.19-.1-.03-.18-.02-.2.03Zm1.57 1.76c-.08.07-.05.21.06.3.11.12.25.14.32.06.06-.07.03-.21-.07-.3-.1-.12-.25-.14-.31-.06Zm-.55-.73c-.08.05-.08.18 0 .3.07.1.2.16.27.1.08-.06.08-.18 0-.3-.07-.11-.2-.16-.27-.1Z"/>
</svg>
